src/topics/icons/gitlab.svg

<svg height="236" preserveAspectRatio="xMidYMid" viewBox="0 0 256 236" width="256" xmlns="http://www.w3.org/2000/svg"><path d="m128.07485 236.074667 47.104-144.9703622h-94.2080005z" fill="#e24329"/><path d="m128.07485 236.074423-47.1040005-144.970362h-66.0150857z" fill="#fc6d26"/><path d="m14.9558857 91.1044267-14.31405713 44.0551623c-1.3056 4.017981.12434286 8.419961 3.54255238 10.903161l123.89059005 90.012039z" fill="#fca326"/><path d="m14.9558857 91.1045486h66.0150857l-28.3708952-87.31428574c-1.4592-4.49340953-7.8153143-4.49219048-9.2745143 0z" fill="#e24329"/><path d="m128.07485 236.074423 47.104-144.970362h66.015085z" fill="#fc6d26"/><path d="m241.193935 91.1044267 14.314057 44.0551623c1.3056 4.017981-.124342 8.419961-3.542552 10.903161l-123.89059 90.012039z" fill="#fca326"/><path d="m241.193935 91.1045486h-66.015085l28.370895-87.31428574c1.4592-4.49340953 7.815314-4.49219048 9.274514 0z" fill="#e24329"/></svg>

<?xml version="1.0" encoding="UTF-8" standalone="no" ?>
<svg width="256px" height="236px" viewBox="0 0 256 236" version="1.1" xmlns="http://www.w3.org/2000/svg" xmlns:xlink="http://www.w3.org/1999/xlink" preserveAspectRatio="xMidYMid">
    <g>
        <path d="M128.07485,236.074667 L128.07485,236.074667 L175.17885,91.1043048 L80.9708495,91.1043048 L128.07485,236.074667 L128.07485,236.074667 Z" fill="#E24329"></path>
        <path d="M128.07485,236.074423 L80.9708495,91.104061 L14.9557638,91.104061 L128.07485,236.074423 L128.07485,236.074423 Z" fill="#FC6D26"></path>
        <path d="M14.9558857,91.1044267 L14.9558857,91.1044267 L0.641828571,135.159589 C-0.663771429,139.17757 0.766171429,143.57955 4.18438095,146.06275 L128.074971,236.074789 L14.9558857,91.1044267 L14.9558857,91.1044267 Z" fill="#FCA326"></path>
        <path d="M14.9558857,91.1045486 L80.9709714,91.1045486 L52.6000762,3.79026286 C51.1408762,-0.703146667 44.7847619,-0.701927619 43.3255619,3.79026286 L14.9558857,91.1045486 L14.9558857,91.1045486 Z" fill="#E24329"></path>
        <path d="M128.07485,236.074423 L175.17885,91.104061 L241.193935,91.104061 L128.07485,236.074423 L128.07485,236.074423 Z" fill="#FC6D26"></path>
        <path d="M241.193935,91.1044267 L241.193935,91.1044267 L255.507992,135.159589 C256.813592,139.17757 255.38365,143.57955 251.96544,146.06275 L128.07485,236.074789 L241.193935,91.1044267 L241.193935,91.1044267 Z" fill="#FCA326"></path>
        <path d="M241.193935,91.1045486 L175.17885,91.1045486 L203.549745,3.79026286 C205.008945,-0.703146667 211.365059,-0.701927619 212.824259,3.79026286 L241.193935,91.1045486 L241.193935,91.1045486 Z" fill="#E24329"></path>
    </g>
</svg>
